Newaita-dark/.DP/16/weather-fog.svg

<svg xmlns="http://www.w3.org/2000/svg" xmlns:xlink="http://www.w3.org/1999/xlink" width="16px" height="16px" viewBox="0 0 16 16" version="1.1">
<defs>
<linearGradient id="linear0" gradientUnits="userSpaceOnUse" x1="960" y1="1695.118042" x2="960" y2="815.117981" gradientTransform="matrix(0.00827,0,0,0.00827,0,-5.217)">
<stop offset="0" style="stop-color:rgb(47.058824%,56.470591%,61.176473%);stop-opacity:1;"/>
<stop offset="1" style="stop-color:rgb(56.470591%,64.313728%,68.235296%);stop-opacity:1;"/>
</linearGradient>
<linearGradient id="linear1" gradientUnits="userSpaceOnUse" x1="254" y1="222.917007" x2="254" y2="95.917" >
<stop offset="0" style="stop-color:rgb(47.058824%,56.470591%,61.176473%);stop-opacity:1;"/>
<stop offset="1" style="stop-color:rgb(56.470591%,64.313728%,68.235296%);stop-opacity:1;"/>
</linearGradient>
<linearGradient id="linear2" gradientUnits="userSpaceOnUse" x1="254" y1="222.917007" x2="254" y2="95.917" >
<stop offset="0" style="stop-color:rgb(47.058824%,56.470591%,61.176473%);stop-opacity:1;"/>
<stop offset="1" style="stop-color:rgb(56.470591%,64.313728%,68.235296%);stop-opacity:1;"/>
</linearGradient>
<linearGradient id="linear3" gradientUnits="userSpaceOnUse" x1="254" y1="233.5" x2="254" y2="254.667007" gradientTransform="matrix(0.03125,0,0,0.03125,0.496,6.389)">
<stop offset="0" style="stop-color:rgb(0%,0%,0%);stop-opacity:0.275;"/>
<stop offset="1" style="stop-color:rgb(0%,0%,0%);stop-opacity:0;"/>
</linearGradient>
<radialGradient id="radial0" gradientUnits="userSpaceOnUse" cx="450.908997" cy="189.578995" fx="450.908997" fy="189.578995" r="21.167" gradientTransform="matrix(0,-0.03907,-0.07032,0,22.427,31.466999)">
<stop offset="0" style="stop-color:rgb(0%,0%,0%);stop-opacity:0.314;"/>
<stop offset="0.222" style="stop-color:rgb(0%,0%,0%);stop-opacity:0.275;"/>
<stop offset="1" style="stop-color:rgb(0%,0%,0%);stop-opacity:0;"/>
</radialGradient>
<radialGradient id="radial1" gradientUnits="userSpaceOnUse" cx="450.908997" cy="189.578995" fx="450.908997" fy="189.578995" r="21.167" gradientTransform="matrix(0,0.03907,0.07032,0,-6.55,-4.095)">
<stop offset="0" style="stop-color:rgb(0%,0%,0%);stop-opacity:0.314;"/>
<stop offset="0.222" style="stop-color:rgb(0%,0%,0%);stop-opacity:0.275;"/>
<stop offset="1" style="stop-color:rgb(0%,0%,0%);stop-opacity:0;"/>
</radialGradient>
<radialGradient id="radial2" gradientUnits="userSpaceOnUse" cx="450.908997" cy="189.578995" fx="450.908997" fy="189.578995" r="21.167" gradientTransform="matrix(0,-0.03907,0.07032,0,-6.55,31.466999)">
<stop offset="0" style="stop-color:rgb(0%,0%,0%);stop-opacity:0.314;"/>
<stop offset="0.222" style="stop-color:rgb(0%,0%,0%);stop-opacity:0.275;"/>
<stop offset="1" style="stop-color:rgb(0%,0%,0%);stop-opacity:0;"/>
</radialGradient>
<radialGradient id="radial3" gradientUnits="userSpaceOnUse" cx="450.908997" cy="189.578995" fx="450.908997" fy="189.578995" r="21.167" gradientTransform="matrix(0,0.03907,-0.07032,0,22.427,-4.095)">
<stop offset="0" style="stop-color:rgb(0%,0%,0%);stop-opacity:0.314;"/>
<stop offset="0.222" style="stop-color:rgb(0%,0%,0%);stop-opacity:0.275;"/>
<stop offset="1" style="stop-color:rgb(0%,0%,0%);stop-opacity:0;"/>
</radialGradient>
<linearGradient id="linear4" gradientUnits="userSpaceOnUse" x1="254" y1="222.917007" x2="254" y2="95.917" >
<stop offset="0" style="stop-color:rgb(47.058824%,56.470591%,61.176473%);stop-opacity:1;"/>
<stop offset="1" style="stop-color:rgb(56.470591%,64.313728%,68.235296%);stop-opacity:1;"/>
</linearGradient>
</defs>
<g id="surface1">
<path style=" stroke:none;fill-rule:nonzero;fill:url(#linear0);" d="M 10.914062 1.523438 C 9.511719 1.519531 8.230469 2.328125 7.628906 3.597656 C 6.320312 3.242188 4.957031 3.941406 4.472656 5.207031 C 4.136719 4.960938 3.726562 4.832031 3.308594 4.832031 C 2.78125 4.828125 2.277344 5.039062 1.90625 5.410156 C 1.53125 5.78125 1.324219 6.289062 1.324219 6.816406 C 1.324219 7.382812 1.566406 7.925781 1.992188 8.304688 C 2.417969 8.679688 2.984375 8.855469 3.546875 8.785156 C 3.578125 8.796875 3.605469 8.800781 3.636719 8.800781 L 10.914062 8.800781 C 11.882812 8.800781 12.808594 8.417969 13.492188 7.738281 C 14.171875 7.054688 14.554688 6.125 14.554688 5.160156 C 14.558594 4.195312 14.175781 3.269531 13.492188 2.585938 C 12.808594 1.902344 11.878906 1.519531 10.914062 1.523438 Z M 10.914062 1.523438 "/>
<path style=" stroke:none;fill-rule:nonzero;fill:rgb(100%,100%,100%);fill-opacity:0.392;" d="M 10.914062 1.523438 C 9.511719 1.519531 8.230469 2.328125 7.628906 3.597656 C 6.320312 3.242188 4.957031 3.941406 4.472656 5.207031 C 4.136719 4.960938 3.726562 4.832031 3.308594 4.832031 C 2.78125 4.828125 2.277344 5.039062 1.90625 5.410156 C 1.53125 5.78125 1.324219 6.289062 1.324219 6.816406 L 1.324219 6.898438 C 1.367188 5.832031 2.242188 4.992188 3.308594 4.996094 C 3.726562 4.996094 4.132812 5.128906 4.472656 5.371094 C 4.957031 4.105469 6.320312 3.410156 7.628906 3.761719 C 8.230469 2.492188 9.511719 1.683594 10.914062 1.6875 C 12.894531 1.683594 14.515625 3.265625 14.550781 5.246094 C 14.554688 5.21875 14.554688 5.191406 14.554688 5.160156 C 14.558594 4.195312 14.175781 3.269531 13.492188 2.585938 C 12.808594 1.902344 11.882812 1.519531 10.914062 1.523438 Z M 10.914062 1.523438 "/>
<path style=" stroke:none;fill-rule:nonzero;fill:rgb(0%,0%,0%);fill-opacity:0.235;" d="M 14.550781 5.085938 C 14.515625 7.066406 12.894531 8.652344 10.914062 8.648438 L 3.636719 8.648438 C 3.605469 8.648438 3.578125 8.644531 3.546875 8.636719 C 3.46875 8.644531 3.386719 8.648438 3.308594 8.648438 C 2.242188 8.652344 1.363281 7.808594 1.324219 6.742188 L 1.324219 6.816406 C 1.324219 7.382812 1.566406 7.925781 1.992188 8.304688 C 2.417969 8.679688 2.984375 8.855469 3.546875 8.785156 C 3.574219 8.796875 3.605469 8.800781 3.636719 8.800781 L 10.914062 8.800781 C 11.878906 8.800781 12.808594 8.417969 13.488281 7.738281 C 14.171875 7.054688 14.554688 6.125 14.554688 5.160156 C 14.554688 5.136719 14.554688 5.113281 14.550781 5.085938 Z M 14.550781 5.085938 "/>
<path style="fill:none;stroke-width:0.09375;stroke-linecap:round;stroke-linejoin:miter;stroke:rgb(12.941177%,12.941177%,12.941177%);stroke-opacity:1;stroke-miterlimit:4;" d="M 10.914062 1.523438 C 9.511719 1.519531 8.230469 2.328125 7.628906 3.597656 C 6.320312 3.242188 4.957031 3.941406 4.472656 5.207031 C 4.136719 4.960938 3.726562 4.832031 3.308594 4.832031 C 2.78125 4.828125 2.277344 5.039062 1.90625 5.410156 C 1.53125 5.78125 1.324219 6.289062 1.324219 6.816406 C 1.324219 7.382812 1.566406 7.925781 1.992188 8.304688 C 2.417969 8.679688 2.984375 8.855469 3.546875 8.785156 C 3.578125 8.796875 3.605469 8.800781 3.636719 8.800781 L 10.914062 8.800781 C 11.882812 8.800781 12.808594 8.417969 13.492188 7.738281 C 14.171875 7.054688 14.554688 6.125 14.554688 5.160156 C 14.558594 4.195312 14.175781 3.269531 13.492188 2.585938 C 12.808594 1.902344 11.878906 1.519531 10.914062 1.523438 Z M 10.914062 1.523438 "/>
<path style="fill-rule:nonzero;fill:url(#linear1);stroke-width:3;stroke-linecap:square;stroke-linejoin:round;stroke:rgb(12.941177%,12.941177%,12.941177%);stroke-opacity:1;stroke-miterlimit:4;" d="M 68.75 95.960007 L 439.25 95.960007 C 445.125 95.960007 449.875 100.585007 449.875 106.460007 C 449.875 112.335007 445.125 117.085007 439.25 117.085007 L 68.75 117.085007 C 63 117.085007 58.25 112.335007 58.25 106.460007 C 58.25 100.585007 63 95.960007 68.75 95.960007 Z M 68.75 95.960007 " transform="matrix(0.03125,0,0,0.03125,0,6.72)"/>
<path style="fill-rule:nonzero;fill:url(#linear2);stroke-width:3;stroke-linecap:square;stroke-linejoin:round;stroke:rgb(12.941177%,12.941177%,12.941177%);stroke-opacity:1;stroke-miterlimit:4;" d="M 132.25 148.835007 L 375.75 148.835007 C 381.625 148.835007 386.375 153.335007 386.375 158.835007 L 386.375 159.960007 C 386.375 165.585007 381.625 169.960007 375.75 169.960007 L 132.25 169.960007 C 126.5 169.960007 121.75 165.585007 121.75 159.960007 L 121.75 158.835007 C 121.75 153.335007 126.5 148.835007 132.25 148.835007 Z M 132.25 148.835007 " transform="matrix(0.03125,0,0,0.03125,0,6.72)"/>
<path style=" stroke:none;fill-rule:nonzero;fill:url(#linear3);" d="M 6.613281 13.6875 L 9.261719 13.6875 L 9.261719 14.347656 L 6.613281 14.347656 Z M 6.613281 13.6875 "/>
<path style=" stroke:none;fill-rule:nonzero;fill:url(#radial0);" d="M 9.261719 13.6875 L 10.585938 13.6875 L 10.585938 13.023438 L 9.261719 13.023438 Z M 9.261719 13.6875 "/>
<path style=" stroke:none;fill-rule:nonzero;fill:url(#radial1);" d="M 6.613281 13.6875 L 5.292969 13.6875 L 5.292969 14.347656 L 6.613281 14.347656 Z M 6.613281 13.6875 "/>
<path style=" stroke:none;fill-rule:nonzero;fill:url(#radial2);" d="M 6.613281 13.6875 L 5.292969 13.6875 L 5.292969 13.023438 L 6.613281 13.023438 Z M 6.613281 13.6875 "/>
<path style=" stroke:none;fill-rule:nonzero;fill:url(#radial3);" d="M 9.261719 13.6875 L 10.585938 13.6875 L 10.585938 14.347656 L 9.261719 14.347656 Z M 9.261719 13.6875 "/>
<path style="fill-rule:nonzero;fill:url(#linear4);stroke-width:3;stroke-linecap:square;stroke-linejoin:round;stroke:rgb(12.941177%,12.941177%,12.941177%);stroke-opacity:1;stroke-miterlimit:4;" d="M 190.5 201.710007 L 317.5 201.710007 C 323.375 201.710007 328.125 205.960007 328.125 211.085007 L 328.125 213.585007 C 328.125 218.710007 323.375 222.960007 317.5 222.960007 L 190.5 222.960007 C 184.625 222.960007 179.875 218.710007 179.875 213.585007 L 179.875 211.085007 C 179.875 205.960007 184.625 201.710007 190.5 201.710007 Z M 190.5 201.710007 " transform="matrix(0.03125,0,0,0.03125,0,6.72)"/>
</g>
</svg>

<svg xmlns="http://www.w3.org/2000/svg" width="16pt" height="16pt" viewBox="0 0 16 16"><defs><linearGradient id="a" gradientUnits="userSpaceOnUse" x1="960" y1="1695.118" x2="960" y2="815.118" gradientTransform="matrix(.00827 0 0 .00827 0 -5.217)"><stop offset="0" stop-color="#78909c"/><stop offset="1" stop-color="#90a4ae"/></linearGradient><linearGradient id="b" gradientUnits="userSpaceOnUse" x1="254" y1="222.917" x2="254" y2="95.917"><stop offset="0" stop-color="#78909c"/><stop offset="1" stop-color="#90a4ae"/></linearGradient><linearGradient id="c" gradientUnits="userSpaceOnUse" x1="254" y1="222.917" x2="254" y2="95.917"><stop offset="0" stop-color="#78909c"/><stop offset="1" stop-color="#90a4ae"/></linearGradient><linearGradient id="d" gradientUnits="userSpaceOnUse" x1="254" y1="233.5" x2="254" y2="254.667" gradientTransform="matrix(.03125 0 0 .03125 .496 6.389)"><stop offset="0" stop-opacity=".275"/><stop offset="1" stop-opacity="0"/></linearGradient><radialGradient id="e" gradientUnits="userSpaceOnUse" cx="450.909" cy="189.579" fx="450.909" fy="189.579" r="21.167" gradientTransform="matrix(0 -.03907 -.07032 0 22.427 31.467)"><stop offset="0" stop-opacity=".314"/><stop offset=".222" stop-opacity=".275"/><stop offset="1" stop-opacity="0"/></radialGradient><radialGradient id="f" gradientUnits="userSpaceOnUse" cx="450.909" cy="189.579" fx="450.909" fy="189.579" r="21.167" gradientTransform="matrix(0 .03907 .07032 0 -6.55 -4.095)"><stop offset="0" stop-opacity=".314"/><stop offset=".222" stop-opacity=".275"/><stop offset="1" stop-opacity="0"/></radialGradient><radialGradient id="g" gradientUnits="userSpaceOnUse" cx="450.909" cy="189.579" fx="450.909" fy="189.579" r="21.167" gradientTransform="matrix(0 -.03907 .07032 0 -6.55 31.467)"><stop offset="0" stop-opacity=".314"/><stop offset=".222" stop-opacity=".275"/><stop offset="1" stop-opacity="0"/></radialGradient><radialGradient id="h" gradientUnits="userSpaceOnUse" cx="450.909" cy="189.579" fx="450.909" fy="189.579" r="21.167" gradientTransform="matrix(0 .03907 -.07032 0 22.427 -4.095)"><stop offset="0" stop-opacity=".314"/><stop offset=".222" stop-opacity=".275"/><stop offset="1" stop-opacity="0"/></radialGradient><linearGradient id="i" gradientUnits="userSpaceOnUse" x1="254" y1="222.917" x2="254" y2="95.917"><stop offset="0" stop-color="#78909c"/><stop offset="1" stop-color="#90a4ae"/></linearGradient></defs><path d="M10.914 1.523A3.624 3.624 0 0 0 7.63 3.598a2.638 2.638 0 0 0-3.156 1.61 1.972 1.972 0 0 0-1.164-.376 1.977 1.977 0 0 0-1.985 1.984 1.98 1.98 0 0 0 2.223 1.97.242.242 0 0 0 .09.015h7.277a3.634 3.634 0 0 0 3.64-3.64 3.631 3.631 0 0 0-3.64-3.638zm0 0" fill="url(#a)"/><path d="M10.914 1.523A3.624 3.624 0 0 0 7.63 3.598a2.638 2.638 0 0 0-3.156 1.61 1.972 1.972 0 0 0-1.164-.376 1.977 1.977 0 0 0-1.985 1.984v.082A1.979 1.979 0 0 1 3.31 4.996a2 2 0 0 1 1.164.375 2.644 2.644 0 0 1 3.156-1.61 3.63 3.63 0 0 1 3.285-2.074 3.63 3.63 0 0 1 3.637 3.56c.004-.028.004-.056.004-.087a3.631 3.631 0 0 0-3.64-3.637zm0 0" fill="#fff" fill-opacity=".392"/><path d="M14.55 5.086a3.627 3.627 0 0 1-3.636 3.562H3.637a.355.355 0 0 1-.09-.011 2.374 2.374 0 0 1-.238.011 1.98 1.98 0 0 1-1.985-1.906v.074a1.98 1.98 0 0 0 2.223 1.97.242.242 0 0 0 .09.015h7.277a3.634 3.634 0 0 0 3.64-3.64c0-.024 0-.048-.003-.075zm0 0" fill-opacity=".235"/><path d="M10.914 1.523A3.624 3.624 0 0 0 7.63 3.598a2.638 2.638 0 0 0-3.156 1.61 1.972 1.972 0 0 0-1.164-.376 1.977 1.977 0 0 0-1.985 1.984 1.98 1.98 0 0 0 2.223 1.97.242.242 0 0 0 .09.015h7.277a3.634 3.634 0 0 0 3.64-3.64 3.631 3.631 0 0 0-3.64-3.638zm0 0" fill="none" stroke-width=".09375" stroke-linecap="round" stroke="#212121"/><path d="M68.743 95.97h370.465c5.874 0 10.624 4.625 10.624 10.5 0 5.874-4.75 10.623-10.624 10.623H68.743c-5.749 0-10.499-4.75-10.499-10.624 0-5.874 4.75-10.499 10.5-10.499zm0 0" transform="matrix(.03125 0 0 .03125 0 6.72)" fill="url(#b)" stroke-width="3" stroke-linecap="square" stroke-linejoin="round" stroke="#212121"/><path d="M132.237 148.84h243.477c5.875 0 10.624 4.5 10.624 10v1.124c0 5.625-4.75 10-10.624 10H132.237c-5.75 0-10.499-4.375-10.499-10v-1.125c0-5.5 4.75-9.999 10.5-9.999zm0 0" transform="matrix(.03125 0 0 .03125 0 6.72)" fill="url(#c)" stroke-width="3" stroke-linecap="square" stroke-linejoin="round" stroke="#212121"/><path d="M6.613 13.688h2.649v.66H6.613zm0 0" fill="url(#d)"/><path d="M9.262 13.688h1.324v-.665H9.262zm0 0" fill="url(#e)"/><path d="M6.613 13.688h-1.32v.66h1.32zm0 0" fill="url(#f)"/><path d="M6.613 13.688h-1.32v-.665h1.32zm0 0" fill="url(#g)"/><path d="M9.262 13.688h1.324v.66H9.262zm0 0" fill="url(#h)"/><path d="M190.482 201.71H317.47c5.874 0 10.624 4.25 10.624 9.374v2.5c0 5.125-4.75 9.374-10.624 9.374H190.482c-5.875 0-10.624-4.25-10.624-9.374v-2.5c0-5.124 4.75-9.374 10.624-9.374zm0 0" transform="matrix(.03125 0 0 .03125 0 6.72)" fill="url(#i)" stroke-width="3" stroke-linecap="square" stroke-linejoin="round" stroke="#212121"/></svg>
